!!! Genre: Scheidemann Prelude
!!! Title: 10. Praeambulum in e
!!! Number: 1
!!! Level: 1
**kern	**kern	**kern	**kern
*clefF4	*clefF4	*clefG2	*clefG2
*k[f#]	*k[f#]	*k[f#]	*k[f#]
*met(c)	*met(c)	*met(c)	*met(c)
*e:	*e:	*e:	*e:
=1	=1	=1	=1
1E	1G# B	1e	1b[
.	.	.	.
.	.	.	.
.	.	.	.
.	.	.	.
.	.	.	.
.	.	.	.
.	.	.	.
=2	=2	=2	=2
1E	1G# B	1e	8bL]
.	.	.	8b
.	.	.	8cc
.	.	.	8ddJ
.	.	.	4ee
.	.	.	.
.	.	.	8bL
.	.	.	8ddJ
=3	=3	=3	=3
1AA	2A	1e	8ccL
.	.	.	8b
.	.	.	8cc
.	.	.	8ddJ
.	4A	.	8ccL
.	.	.	8dd
.	4B	.	8b
.	.	.	8ccJ
=4	=4	=4	=4
4AA	1c	1e	1a
.	.	.	.
4BB	.	.	.
.	.	.	.
4C	.	.	.
.	.	.	.
4D	.	.	.
.	.	.	.
=5	=5	=5	=5
2.E	4B	1e	4g#
.	.	.	.
.	4A	.	4a
.	.	.	.
.	2G#	.	2b
.	.	.	.
4D	.	.	.
.	.	.	.
=6	=6	=6	=6
2C#	1A	4e	2a[
.	.	.	.
.	.	8dL	.
.	.	8eJ	.
2D	.	2f#	8aL]
.	.	.	8dd
.	.	.	8a
.	.	.	8ccJ
=7	=7	=7	=7
2GG	4d	2g	4b
.	.	.	.
.	4c	.	4cc
.	.	.	.
2G[	4B	2g[	4dd
.	.	.	.
.	4c	.	4cc
.	.	.	.
=8	=8	=8	=8
4G]	2d	2g]	2b
.	.	.	.
4F	.	.	.
.	.	.	.
4E	2e[	2g[	2b
.	.	.	.
4D	.	.	.
.	.	.	.
=9	=9	=9	=9
2C	4e]	2g]	8ccL
.	.	.	16b
.	.	.	16ccJ
.	4e	.	8ddL
.	.	.	8ccJ
2D	2d	8fL	2b[
.	.	16e	.
.	.	16fJ	.
.	.	8gL	.
.	.	8fJ	.
=10	=10	=10	=10
2E	2c	2e	8.bL]
.	.	.	16ccJ
.	.	.	4a
.	.	.	.
2F	8.BL	2d	2a[
.	16cJ	.	.
.	4A	.	.
.	.	.	.
=11	=11	=11	=11
1E	8cL	1e	8aL]
.	16B	.	16g#
.	16cJ	.	16aJ
.	8dL	.	8bL
.	8cJ	.	8aJ
.	8BL	.	8g#L
.	8AJ	.	8f#
.	4B	.	8a
.	.	.	8g#J
=12	=12	=12	=12
1AA	1A c#	1e	1a
.	.	.	.
.	.	.	.
.	.	.	.
.	.	.	.
.	.	.	.
.	.	.	.
.	.	.	.
=||	=||	=||	=||
*-	*-	*-	*-
